X: 1
T:AIR XXII. Waes my Heart, that we shou'd sunder.
B:Joseph Mitchell: "The Highland Fair" (1731)
Z:Jack Campin <http://www.purr.demon.co.uk/jack/jack.html>
N:bar 10 could be |(ed)(ef)  (e>f g)(f/e/)|
M:C|
L:1/8
K:C
c2|(GE)(DE)  G3     c    |(AGA)B     A2   (GA)   | c3   d   egde   |(c3d) e2g2  |
   (GE)(DE)  G3     G    | A2GF      f3     a    | g3   e  (ge)dc  | A3G  A2c3/||
f/|(fe)(fg) (f>g a)(g/f/)|(ed)(eg)  (e>f g)(f/e/)|(de)(ga) (ge)(de)| c3d  e2g>G |
   (GE)(DE)  G2  G2      | A2 (GF)   f3     a    |(ga)(ge) (fe)(dc)| A3G  A2c2 |]
